X:18462
T:Waltz. CJF.045
M:3/8
L:1/16
Q:45
S: C.J.Fox MS, 1829/33, Beverley,E.Yorks.
R:Waltz
O:England
A:East Yorkshire
B:Kidson Coll.Mitchell Lib.M1805
N:Only the first six trplets are marked as such in the MS. "C J Fox" is
N:after the tune, on the stave - PJH.
Z:P J Headford 2000
K:G
d>b|g2g2 d>b|g2g2 d>b|a2a2d'2|b2g2 d>b|!g2g2 d>b|\
g2g2 ((3dgb)|a2a2d'2|g4:|:!a>b|c'>ba>bc'>a|b>ag>ab>g|a>gf>ga>f|
g>ab>c'd'>b|!c'>ba>bc'>a|b>ag>ab>g|a>gf>ga>f|g4:|:!d>b|\
g2 ((3bd'b) ((3gbg)|d2 ((3bd'b) ((3gbg)|a2 ((3d'e'd') ((3c'ba)|b2g2 db|!
g2 ((3bd'b) ((3gbg)|d2 ((3bd'b) ((3gbg)|a2 ((3d'e'd') ((3c'ba)|\
g4:|:!a>b|((3c'af) ((3dfa) ((3c'af)|((3bgd) ((3Bdg) ((3bgd)|((3afd) ((3A
df) ((3afd)|
((3gdg) ((3bgb) ((3d'bg)|!((3c'af) ((3dfa) ((3c'af)|\
((3bgd) ((3Bdg) ((3bgd)|((3adf) ((3ac'a) ((3c'bg)|({a2}g4:|]


